icons/DotNet.svg

<svg xmlns="http://www.w3.org/2000/svg" width="256" height="256" fill="none" viewBox="0 0 256 256"><rect width="256" height="256" fill="#512BD4" rx="60"/><path fill="#fff" d="M24.0522 168.943C21.8155 168.943 19.9143 168.212 18.3486 166.749C16.7829 165.248 16 163.466 16 161.402C16 159.301 16.7829 157.5 18.3486 155.999C19.9143 154.499 21.8155 153.748 24.0522 153.748C26.3262 153.748 28.246 154.499 29.8118 155.999C31.4147 157.5 32.2162 159.301 32.2162 161.402C32.2162 163.466 31.4147 165.248 29.8118 166.749C28.246 168.212 26.3262 168.943 24.0522 168.943Z"/><path fill="#fff" d="M113.467 167.705H98.9285L60.625 108.387C59.6558 106.886 58.8539 105.328 58.2205 103.715H57.8848C58.1831 105.441 58.3322 109.137 58.3322 114.802V167.705H45.4707V87H60.96L97.9781 144.912C99.5439 147.314 100.55 148.964 100.998 149.865H101.221C100.849 147.726 100.662 144.106 100.662 139.002V87H113.467V167.705Z"/><path fill="#fff" d="M176.098 167.705H131.084V87H174.309V98.3688H144.393V121.218H171.961V132.53H144.393V156.393H176.098V167.705Z"/><path fill="#fff" d="M240.071 98.3688H217.033V167.705H203.724V98.3688H180.742V87H240.071V98.3688Z"/></svg>

<svg xmlns="http://www.w3.org/2000/svg" width="256" height="256" fill="none" viewBox="0 0 256 256"><rect width="256" height="256" fill="#512BD4" rx="60"/><path fill="#fff" d="M24.05 168.94a8 8 0 0 1-5.7-2.2A7.2 7.2 0 0 1 16 161.4q0-3.15 2.35-5.4a8 8 0 0 1 5.7-2.25q3.42 0 5.76 2.25 2.4 2.25 2.4 5.4 0 3.1-2.4 5.35a8 8 0 0 1-5.76 2.2m89.42-1.25H98.93l-38.3-59.31a26 26 0 0 1-2.41-4.67h-.34q.45 2.59.45 11.08v52.9H45.47V87h15.49l37.02 57.91a61 61 0 0 1 3.02 4.96h.22q-.56-3.2-.56-10.87V87h12.8zm62.63 0h-45.02V87h43.23v11.37h-29.92v22.85h27.57v11.31H144.4v23.86h31.7zm63.97-69.33h-23.04v69.34h-13.3V98.37h-22.99V87h59.33z"/></svg>
